X: 1416
T: Ernie Goodman's Dad's Jig
B: australian traditional tunes wiki
M:4/4
L:1/16
R: Set Tune
Q: 1/4=100
K:D
V:1 
"D"F2Ad fdAF "G"G2B2 g2d2|"D"F2Ad f2d2 "A7"edcB A2A2|"D"F2Ad fdAF "G"G2B2 g2e2|"D"fafd "A7"egec "D"d2d2 d2e2|
"D"a2fd Adfa "G"g2ef g2fg|"D"a2fd A2df "A7"edcB A2A2|"D"a2fd Adfa "G"g2ef g2a2|"D"fafd "A7"egec "D"d2d2d4||
% abcbook-tune_id 6342d53ad6acda4e2bb7cc90


% abcbook-boost 0
% abcbook-tablature 
% abcbook-transpose 
% abcbook-lastupdated 1665324364117
% abcbook-soundfonts 
% abcbook-repeats 1
% NFF Book 2015

